X:3
T:Top Gun
M:4/4
L:1/8
Q:1/4=100
K:Bbmaj
% %score {3}
V:1 name="Organ" sname="Organ" " " 
%%MIDI channel 1
%%MIDI program 19
%%MIDI vol 100
%%MIDI nobeataccents
 | Z                        | Z                 |
[| [FBd]8                   | [GBe]8            | [FBd]4 [GBe]2 [FBd]2 | [FBd]2 [FAc]6   | [FBd]8          | [GBe]8            | [FBd]4 [Gce]2 [FBd]2 | [F_A_d]8        |
   [FBd]8                   | [GBe]8            | [FBd]4 [GBe]2 [FBd]2 | [FBd]2 [FAc]6   | [FBd]8          | [GBe]8            | [FBd]4 [Gce]2 [FBd]2 | [F_A_d]8        |]
   [K:Emaj][Beg]8           | [cea]8            | [Beg]4 [cea]2 [Beg]2 | [Beg]2 [Bdf]6   | [Beg]8          | [cfa]8            | [Beg]4 [cfa]2 [Beg]2 | [^B^^c'^^f]8    |
   [K:Bbmaj][FBd]8          | [GBe]8            | [FBd]4 [GBe]2 [FBd]2 | [FBd]2 [FAc]6   | [FBd]8          | [GBe]8            | [FBd]4 [Gce]2 [FBd]2 | [F_A_d]8        |]
V:2 transpose=-24 name="Bass Bell" sname="Bass Bell" 
%%MIDI program 14
%%MIDI vol 100
%%MIDI nobeataccents
 | B,,8                     | B,,8              |
[| B,,8                     | B,,8              | B,,8                 | B,,8            | B,,8            | B,,8              | B,,8                 | _A,,8           |
   B,,8                     | B,,8              | B,,8                 | B,,8            | B,,8            | B,,8              | B,,8                 | _A,,8           |]
   [K:Amaj]        E,,8     | E,,8              | E,,8                 | E,,8            | E,,8            | E,,8              | E,,8                 | C,,8            |
   [K:Bbmaj]B,,8            | B,,8              | B,,8                 | B,,8            | B,,8            | B,,8              | B,,8                 | _A,,8           |]
V:3 name="Melody" sname="Melody"
%%MIDI program 30
%%MIDI vol 100
 | Z                        | Z                 |
[| Z                        | Z                 | Z                    | Z               | Z               | Z                 | Z                    | Z               |
   B2              f2 f2 ed | ed     c2 c2 Bc   | d2     cd e2 dB      | d2     c2 c2 z2 | B2     f2 f2 ed | ed     c2 c2 Bc   | d2     cd e2 dc      | f4           z4 |]
   [K:Amaj]e2      b2 b2 ag | a      g f2 f2 ef | g2     f g a2 g e    | g2     f6       | e2     b2 b2 ag | a      g f2 f2 ef | g2     f g a2 g e    | d8              |
   [K:Bbmaj]B2     f2 f2 ed | ed     c2 c2 Bc   | d2     cd e2 dB      | d2     c2 c2 z2 | B2     f2 f2 ed | ed     c2 c2 Bc   | d2     cd e2 dc      | B4           z4 |
V:10 name="drums" sname="drums"
%%MIDI program 14
%%MIDI channel 10
%Midi Channel 10/11 designated for DRUMS
% 35 - Acoustic Bass    B0
% 38 - Acoustic Snare   D1
% 39 - Hand Clap        Eb1
% 41 - Floor Tom        F1
% 42 - Closed High hat  F#1
% 43 - High floor tom   G1
% 44 - Pedal High hat   Ab1
% 45 - Low Tom          A1
% 46 - Open hi hat      Bb1
% 47 - Low-mid tom      B1
% 48 - High-mid tom     C2
% 49 - Crash            C#2
% 50 - High Tom         D2
% 51 - Ride             D#2
% 53 - Ride Bell        F2
% 55 - Splash           G2
% 57 - Crash 2          A2
% 59 - Ride 2           B2
% 81 - Triangle         A4
L:1/8
B,,3/B,,,/D,/B,,,2/B,,,/B,,,8/ | B,,,3/B,,,/D,/B,,,2/B,,,/B,,,8/ | 
[|B,,,3/B,,,/D,/B,,,2/B,,,/B,,,8/ | B,,,3/B,,,/D,/B,,,2/B,,,/B,,,8/ | B,,,3/B,,,/D,/B,,,2/B,,,/B,,,8/ | B,,,3/B,,,/D,/B,,,2/B,,,/B,,,8/ | B,,,3/B,,,/D,/B,,,2/B,,,/B,,,8/ | B,,,3/B,,,/D,/B,,,2/B,,,/B,,,8/ | B,,,3/B,,,/D,/B,,,2/B,,,/B,,,8/ | B,,,3/B,,,/D,/B,,,2/B,,,/B,,,8/ | 
B,,,3/B,,,/D,/B,,,2/B,,,/B,,,8/ | B,,,3/B,,,/D,/B,,,2/B,,,/B,,,8/ | B,,,3/B,,,/D,/B,,,2/B,,,/B,,,8/ | B,,,3/B,,,/D,/B,,,2/B,,,/B,,,8/ | B,,,3/B,,,/D,/B,,,2/B,,,/B,,,8/ | B,,,3/B,,,/D,/B,,,2/B,,,/B,,,8/ | B,,,3/B,,,/D,/B,,,2/B,,,/B,,,8/ | B,,,3/B,,,/D,/B,,,2/B,,,/B,,,8/ | 
B,,,3/B,,,/D,/B,,,2/B,,,/B,,,8/ | B,,,3/B,,,/D,/B,,,2/B,,,/B,,,8/ | B,,,3/B,,,/D,/B,,,2/B,,,/B,,,8/ | B,,,3/B,,,/D,/B,,,2/B,,,/B,,,8/ | B,,,3/B,,,/D,/B,,,2/B,,,/B,,,8/ | B,,,3/B,,,/D,/B,,,2/B,,,/B,,,8/ | B,,,3/B,,,/D,/B,,,2/B,,,/B,,,8/ | B,,,3/B,,,/D,/B,,,2/B,,,/B,,,8/ | 
B,,,3/B,,,/D,/B,,,2/B,,,/B,,,8/ | B,,,3/B,,,/D,/B,,,2/B,,,/B,,,8/ | B,,,3/B,,,/D,/B,,,2/B,,,/B,,,8/ | B,,,3/B,,,/D,/B,,,2/B,,,/B,,,8/ | B,,,3/B,,,/D,/B,,,2/B,,,/B,,,8/ | B,,,3/B,,,/D,/B,,,2/B,,,/B,,,8/ | B,,,3/B,,,/D,/B,,,2/B,,,/B,,,8/ | B,,,3/B,,,/D,/B,,,2/B,,,/B,,,,,,8/ | 


